public/img/common/icon-discord.svg

<svg fill="none" height="42" viewBox="0 0 43 42" width="43" xmlns="http://www.w3.org/2000/svg"><rect fill="#fff" height="42" rx="10" width="42" x=".723633"/><path d="m28.5832 30.7166s-.8583-1.0251-1.5735-1.931c3.1231-.8821 4.3151-2.837 4.3151-2.837-.9775.6437-1.9072 1.0967-2.7416 1.4066-1.192.5006-2.3363.8344-3.4568 1.0251-2.2886.4291-4.3865.3099-6.1745-.0238-1.3589-.2623-2.5271-.6437-3.5045-1.0251-.5483-.2146-1.1443-.4768-1.7403-.8106-.0715-.0477-.143-.0715-.2146-.1192-.0476-.0238-.0715-.0477-.0953-.0715-.4291-.2384-.6675-.4053-.6675-.4053s1.1443 1.9072 4.1719 2.8131c-.7152.9059-1.5972 1.9787-1.5972 1.9787-5.2686-.1669-7.2712-3.6236-7.2712-3.6236 0-7.6765 3.4329-13.8987 3.4329-13.8987 3.433-2.5747 6.6991-2.5032 6.6991-2.5032l.2384.2861c-4.2912 1.2397-6.2699 3.123-6.2699 3.123s.5244-.2861 1.4065-.6913c2.5509-1.1205 4.5773-1.4304 5.4117-1.5019.143-.0239.2622-.0477.4052-.0477 1.4543-.1907 3.0992-.2384 4.8157-.0477 2.2648.2622 4.6965.9297 7.1758 2.2886 0 0-1.8833-1.788-5.9361-3.0276l.3337-.3815s3.2661-.0715 6.699 2.5032c0 0 3.433 6.2222 3.433 13.8987 0 0-2.0264 3.4567-7.295 3.6236zm-11.0856-11.1332c-1.3588 0-2.4316 1.192-2.4316 2.6462s1.0966 2.6462 2.4316 2.6462c1.3589 0 2.4317-1.192 2.4317-2.6462.0238-1.4542-1.0728-2.6462-2.4317-2.6462zm8.7016 0c-1.3589 0-2.4317 1.192-2.4317 2.6462s1.0967 2.6462 2.4317 2.6462c1.3589 0 2.4317-1.192 2.4317-2.6462s-1.0728-2.6462-2.4317-2.6462z" fill="#003"/></svg>

<svg width="43" height="42" viewBox="0 0 43 42" fill="none" xmlns="http://www.w3.org/2000/svg">
<rect x="0.723633" width="42" height="42" rx="10" fill="white"/>
<path d="M28.5832 30.7166C28.5832 30.7166 27.7249 29.6915 27.0097 28.7856C30.1328 27.9035 31.3248 25.9486 31.3248 25.9486C30.3473 26.5923 29.4176 27.0453 28.5832 27.3552C27.3912 27.8558 26.2469 28.1896 25.1264 28.3803C22.8378 28.8094 20.7399 28.6902 18.9519 28.3565C17.593 28.0942 16.4248 27.7128 15.4474 27.3314C14.8991 27.1168 14.3031 26.8546 13.7071 26.5208C13.6356 26.4731 13.5641 26.4493 13.4925 26.4016C13.4449 26.3778 13.421 26.3539 13.3972 26.3301C12.9681 26.0917 12.7297 25.9248 12.7297 25.9248C12.7297 25.9248 13.874 27.832 16.9016 28.7379C16.1864 29.6438 15.3044 30.7166 15.3044 30.7166C10.0358 30.5497 8.0332 27.093 8.0332 27.093C8.0332 19.4165 11.4661 13.1943 11.4661 13.1943C14.8991 10.6196 18.1652 10.6911 18.1652 10.6911L18.4036 10.9772C14.1124 12.2169 12.1337 14.1002 12.1337 14.1002C12.1337 14.1002 12.6581 13.8141 13.5402 13.4089C16.0911 12.2884 18.1175 11.9785 18.9519 11.907C19.0949 11.8831 19.2141 11.8593 19.3571 11.8593C20.8114 11.6686 22.4563 11.6209 24.1728 11.8116C26.4376 12.0738 28.8693 12.7413 31.3486 14.1002C31.3486 14.1002 29.4653 12.3122 25.4125 11.0726L25.7462 10.6911C25.7462 10.6911 29.0123 10.6196 32.4452 13.1943C32.4452 13.1943 35.8782 19.4165 35.8782 27.093C35.8782 27.093 33.8518 30.5497 28.5832 30.7166ZM17.4976 19.5834C16.1388 19.5834 15.066 20.7754 15.066 22.2296C15.066 23.6838 16.1626 24.8758 17.4976 24.8758C18.8565 24.8758 19.9293 23.6838 19.9293 22.2296C19.9531 20.7754 18.8565 19.5834 17.4976 19.5834ZM26.1992 19.5834C24.8403 19.5834 23.7675 20.7754 23.7675 22.2296C23.7675 23.6838 24.8642 24.8758 26.1992 24.8758C27.5581 24.8758 28.6309 23.6838 28.6309 22.2296C28.6309 20.7754 27.5581 19.5834 26.1992 19.5834Z" fill="#000033"/>
</svg>
